X: 1
T: Whiskey You're the Devil    [D]
O: Ireland
M: C
L: 1/16
Z: 2006 John Chambers <jc@trillian.mit.edu>
% %vocalfont Helvetica-Narrow-Bold 15
K: D
A2 |\
"D"D2D2D2E2 F2A2A2A2 | "Em"B2E2E2F2 "A7"G2A2B2A2 |\
"G"d2e2d2B2 "D"B2A2A2F2 | "E7"E2E2E2F2 "A7"E2C2B,2A,2 |]
"D"D4F3E D6AF | D2D2 DEFG A6 AF | "Em"E2E2 EFGA B4 "A7"z2A2 |\
"G"d2e2d2B2 "D"B2A2"G"d2B2 | "D"A2F2 "A7"E3F "D"D4 z4 |]
"D"D2D2 D3E F2A4A2 | "G"B2A2B2c2 d8 |\
"G"d3e d2B2 "D"B2A4F2 | "E7"E3E E2F2 "A7"E6 A2 |
"D"D2D2D2E2 F2A2A2A2 | "G"B2A2B2c2 d4d2c2 |\
"D"B2A2 "G"[d3G3]c "D"B2A2 "Bm"F2D | "Em"E4-"A7"E4 "D"D6 |]
